public/clip.svg

<svg width="98" height="49" viewBox="0 0 98 49" fill="none" xmlns="http://www.w3.org/2000/svg">
<path d="M75.7273 42.3182H24.5C14.6555 42.3182 6.68182 34.3445 6.68182 24.5C6.68182 14.6555 14.6555 6.68182 24.5 6.68182H80.1818C86.3291 6.68182 91.3182 11.6709 91.3182 17.8182C91.3182 23.9655 86.3291 28.9545 80.1818 28.9545H33.4091C30.9591 28.9545 28.9545 26.95 28.9545 24.5C28.9545 22.05 30.9591 20.0455 33.4091 20.0455H75.7273V13.3636H33.4091C27.2618 13.3636 22.2727 18.3527 22.2727 24.5C22.2727 30.6473 27.2618 35.6364 33.4091 35.6364H80.1818C90.0264 35.6364 98 27.6627 98 17.8182C98 7.97364 90.0264 0 80.1818 0H24.5C10.9582 0 0 10.9582 0 24.5C0 38.0418 10.9582 49 24.5 49H75.7273V42.3182Z" fill="white"/>
</svg>

<svg width="98" height="49" viewBox="0 0 98 49" fill="none" xmlns="http://www.w3.org/2000/svg"><path d="M75.727 42.318H24.5c-9.844 0-17.818-7.974-17.818-17.818S14.656 6.682 24.5 6.682h55.682c6.147 0 11.136 4.989 11.136 11.136S86.33 28.954 80.182 28.954H33.409a4.47 4.47 0 0 1-4.454-4.454 4.47 4.47 0 0 1 4.454-4.454h42.318v-6.682H33.41c-6.147 0-11.136 4.989-11.136 11.136s4.989 11.136 11.136 11.136h46.773C90.026 35.636 98 27.663 98 17.818 98 7.974 90.026 0 80.182 0H24.5C10.958 0 0 10.958 0 24.5S10.958 49 24.5 49h51.227z" fill="#fff"/></svg>
